src/themes/images/2023/smoke.svg

<?xml version="1.0" encoding="UTF-8"?>
<svg fill="none" viewBox="0 0 1614 686" xmlns="http://www.w3.org/2000/svg">
<g opacity=".03">
<mask id="a" x="0" y="0" width="1614" height="686" style="mask-type:alpha" maskUnits="userSpaceOnUse">
<rect width="1614" height="686" fill="#D9D9D9"/>
</mask>
<g mask="url(#a)">
<path d="m636.96 729.44c1.98-55.09-16.37-109.49-47.41-154.63-39.82-58.13-95.57-102.49-152.88-142.56-52.06-36.18-106.28-68.55-159.28-103.89-56.4-37.87-111.88-78.26-154.24-132.76l-2.12-3.63c-7.62-11-15.06-22.57-22.03-35.19-34.4-60.54-37.79-122.36-38.48-190.37-0.52-23.78-1.49-46.69-4.29-70.03-2.47-19.77-6.1-39.59-12.01-58.82-1.23-4.06-2.6-8.12-4.22-12.34l295.92 137.47c-4.17 1.27-8.09 2.69-11.85 4.12-33.29 12.87-66.56 32.1-92.76 55.32-16.63 15.29-30.79 31.2-33.97 53.03-1.49 13.28 0.34 25.34 3.44 39.48 2.29 9.72 5.43 19.92 9.1 30.31l-2.12-3.63c18.77 38.51 47.39 72.56 77.23 103.84 111.55 118.01 293.37 229.41 341.61 390.22 9.03 30.45 12.64 62.41 11.36 94.08l-1-0.03v0.01z" fill="#25114C"/>
<path d="m627.84 732.95c5.44-200.69-199.3-313.41-336.8-423.68-50.04-39.79-99.56-81.58-135.85-135.39-12.16-21.49-24.59-42.68-35.66-64.98-43.89-85.86-33.33-142.81-12.51-232.72l67.88 31.53c-17.91 22.43-32.31 47.37-40.81 74.71-12.48 38.5-5.94 77.64 10.5 114.98 8.45 20.41 22.42 47.47 30.64 64.78 49.46 79.08 126.65 136.5 197.94 195.25 117.17 94.91 262.73 209.36 254.67 375.52z" fill="#2F1F60"/>
<path d="m636 747.06c-17.29-70.67-36.37-141.3-63.35-208.96-5.61-14.35-12.27-29.54-18.7-43.58-23.79-52.1-54.64-98.47-82.82-149.03-9.1-16.39-17.75-33.08-25.67-50.06-24.24-51.16-42.03-104.73-57.73-159.09-8.19-27.39-17.01-55.38-23.7-83.46-7.21-29.54-12.64-58.29-16.12-89.15-2.33-20.74-3.52-42.19-3.23-64.84l131.4 27.38c-7.07 13.13-12.54 28.05-16.93 43.76-13.13 49.41-16.05 102.69-11.13 153.9 7.78 61.56 24.96 121.97 47.2 179.83 16.77 42.19 37.42 81.82 56.23 124.13 11.37 25.21 21.45 51.49 30.26 77.74 7.12 21.72 13.85 44.17 19.54 66.32 5.8 22.16 10.96 44.66 15.7 67.01 7.57 35.86 13.86 71.89 20.05 107.91l-0.98 0.2-0.02-0.01z" fill="#25114C"/>
<path d="m616.19 754.34c-0.45-55.48 9.73-111 3.65-166.38-14.77-154.34-80.91-296.48-107.34-449.22-15.09-85.97-15.01-172.66 13.11-256.61 8.25-24.97 18.82-49.63 30.98-73.1l4.66-9.03 194.41 172.92c-1.47 0.49-2.92 1.02-4.41 1.55-1.49 0.52-2.97 1.08-4.36 1.7l-4.3 1.84-1.07 0.48-1.03 0.52-2.07 1.04c-37.88 18.7-63.35 54.29-79.46 93.09-47.99 120.58-27.78 273.01-23.22 401.33 1.66 37.61 1.81 75.42 0.03 113.03-0.61 18.76-2.65 37.74-5.4 56.27-2.58 17.65-6.03 37.53-8.53 55.18-2.58 18.36-4.43 36.85-4.66 55.4h-1l0.01-0.01z" fill="#25114C"/>
<path d="m638.66 752.98c4.46-52.62 12.53-105.37 26.08-156.45 7.48-28.17 16.91-56.55 27.9-83.53 2.18-5.09 6.73-15.59 8.85-20.43 1.97-4.08 7.6-15.89 9.66-20.17 2.4-4.57 8.21-15.49 10.52-19.86 2.43-4.23 8.82-15.1 11.39-19.5 17.84-29.2 39.39-56.29 59.41-83.66 10.32-14.33 20.24-28.89 28.32-44.11 16.29-30.49 26.25-64.44 35.86-98.2 24.35-87.3 44.2-186.23 14.59-272.29l146.37-34c1.83 11.64 3.26 23.27 4.1 34.84 1.64 22.53 1.44 45.84-0.54 68.22-7.91 89.86-40.29 171.91-78.18 251.31-19.65 41.7-43.57 84.55-75.69 118.7-37 39.88-72.09 67.42-103 106.94-50.52 64.06-85.05 139.42-109.22 217.35-4.08 13.01-8.38 27.95-11.83 41.15l-3.62 13.85-0.99-0.16h0.02z" fill="#25114C"/>
<path d="m637.87 772.09c33.54-133.23 189.61-162.71 291.52-227.32 18.69-11.6 36.64-24.39 53.66-38.27 55.82-45.84 101.5-102.82 139.75-163.82 23.33-37.3 44.13-76.09 63.06-115.82 18.79-40.17 37.19-81.48 43.89-125.38 6.51-53.85 10.13-109.2 0.52-162.48l-0.85-4.04c-0.46-2.32-0.93-4.56-2.23-6.5-2.83-5.07-6.5-8.86-10.45-13.22-3.64-3.86-7.03-8.2-10.69-12.98-14.36-18.96-25.16-44.03-31.65-67.89l171.4-3.73c-6.16 4.45-9.9 8.1-11.11 16.66-1.18 8.86 0.67 21.89 1.47 31.3 0.83 9.23 1.39 19.09 1.11 28.51-0.2 9.04-1.33 18.11-2.71 26.98-0.94 7.15-2.28 14.53-3.62 21.53-8.43 43.38-20.98 85.88-34.07 127.34-2.94 9.44-6.12 19.17-9.35 28.54-3.55 9.88-7.66 19.71-11.99 29.1-22.44 47.69-50.28 91.84-76.38 136.84-33.32 55.22-70.47 108.46-113.82 156.34-43.24 47.84-93.22 90.15-149.76 121.4-66.82 37.58-141.7 58.06-206.12 99.83-31.78 20.53-60.57 47.38-77.5 81.66-5.67 11.35-10.03 23.33-13.1 35.64l-0.97-0.24-0.01 0.02z" fill="#25114C"/>
<path d="m638.14 772.16c25.4-105.64 137.19-147.44 225.81-188.7 43.38-19.66 85.17-42.92 122.54-72.52 92.28-73.27 158.08-173.89 211.38-277.75 17.12-33.61 33.92-68.28 44.97-104.15 3.19-10.35 5.78-20.82 7.64-31.45 8.8-50.67 14.88-102.63 11.64-153.86-0.11-1.51-0.19-3.03-0.32-4.53l-0.44-4.48c-1.68-20.88-13.32-36.56-22.88-55.28-7.21-13.69-12.81-30.38-15.8-46.09l74.83-1.63c-2.65 8.93-3.4 17.59-1.98 28.68 2.32 16.28 7.5 34.45 7.87 51.76 0.44 8.99-0.51 18.32-1.15 27.28-5.15 53.76-17.62 106.02-31.45 157.84-1.63 6.22-3.61 12.81-5.68 18.85-14.75 42.66-37.17 82.31-58.41 121.71-5.24 9.58-13.2 24.14-18.55 33.5-76.95 136.45-175.4 253.17-323.15 314.45-83.73 38.31-186.3 74.42-220.91 168.26-2.14 5.98-3.98 12.07-5.54 18.23l-0.42-0.1v-0.02z" fill="#2F1F60"/>
<path d="m664.47 752.84c27.33-106.77 175.91-158.58 271.8-184.26 44.9-11.75 90.63-20.66 136.65-26.87 10.19-1.58 20.34-3.98 30.33-6.75 168.22-48.45 296.74-195.31 346.17-360.31 19.43-63.41 35.59-127.18 56.73-190.69 9.62-28.13 20.27-56.4 35.59-82.32 14.56-24.85 36.21-49.02 64.65-62 4.47-2.08 9.3-3.99 14.47-5.67l34.17 168c1.69-0.97 3.08-1.94 4.18-2.9 1.09-0.97 1.89-1.89 2.44-2.72 1.11-1.7 1.14-3.04 0.65-3.92-1.08-1.77-4.34-1.77-8.07-0.58999-9.76 3.32-18.31 10.09-26.24 16.83-9.52 8.26-18.45 17.71-26.84 27.49-40.43 47.79-71.79 103.72-101.08 159.25-37.02 71.47-79.58 140.78-134.63 199.8-69.47 74.2-158.85 131.69-258.32 155.08-13.99 3.32-28.67 5.6-43.07 6.73-113.69 12.03-270.58 43.8-355.2 124.29-20.3 19.65-36.64 44.12-43.41 71.79l-0.97-0.24v-0.02z" fill="#25114C"/>
</g>
</g>
</svg>

<svg width="1614" height="686" viewBox="0 0 1614 686" fill="none" xmlns="http://www.w3.org/2000/svg">
<g opacity="0.03">
<mask id="mask0_110_8821" style="mask-type:alpha" maskUnits="userSpaceOnUse" x="0" y="0" width="1614" height="686">
<rect width="1614" height="686" fill="#D9D9D9"/>
</mask>
<g mask="url(#mask0_110_8821)">
<path d="M636.96 729.44C638.94 674.35 620.59 619.95 589.55 574.81C549.73 516.68 493.98 472.32 436.67 432.25C384.61 396.07 330.39 363.7 277.39 328.36C220.99 290.49 165.51 250.1 123.15 195.6L121.03 191.97C113.41 180.97 105.97 169.4 99 156.78C64.6 96.24 61.21 34.42 60.52 -33.59C60 -57.37 59.03 -80.28 56.23 -103.62C53.76 -123.39 50.13 -143.21 44.22 -162.44C42.99 -166.5 41.62 -170.56 40 -174.78L335.92 -37.31C331.75 -36.04 327.83 -34.62 324.07 -33.19C290.78 -20.32 257.51 -1.09003 231.31 22.13C214.68 37.42 200.52 53.33 197.34 75.16C195.85 88.44 197.68 100.5 200.78 114.64C203.07 124.36 206.21 134.56 209.88 144.95L207.76 141.32C226.53 179.83 255.15 213.88 284.99 245.16C396.54 363.17 578.36 474.57 626.6 635.38C635.63 665.83 639.24 697.79 637.96 729.46L636.96 729.43V729.44Z" fill="#25114C"/>
<path d="M627.84 732.95C633.28 532.26 428.54 419.54 291.04 309.27C241 269.48 191.48 227.69 155.19 173.88C143.03 152.39 130.6 131.2 119.53 108.9C75.64 23.04 86.2 -33.91 107.02 -123.82L174.9 -92.29C156.99 -69.86 142.59 -44.92 134.09 -17.58C121.61 20.92 128.15 60.06 144.59 97.4C153.04 117.81 167.01 144.87 175.23 162.18C224.69 241.26 301.88 298.68 373.17 357.43C490.34 452.34 635.9 566.79 627.84 732.95Z" fill="#2F1F60"/>
<path d="M636 747.06C618.71 676.39 599.63 605.76 572.65 538.1C567.04 523.75 560.38 508.56 553.95 494.52C530.16 442.42 499.31 396.05 471.13 345.49C462.03 329.1 453.38 312.41 445.46 295.43C421.22 244.27 403.43 190.7 387.73 136.34C379.54 108.95 370.72 80.96 364.03 52.88C356.82 23.34 351.39 -5.40999 347.91 -36.27C345.58 -57.01 344.39 -78.46 344.68 -101.11L476.08 -73.73C469.01 -60.6 463.54 -45.68 459.15 -29.97C446.02 19.44 443.1 72.72 448.02 123.93C455.8 185.49 472.98 245.9 495.22 303.76C511.99 345.95 532.64 385.58 551.45 427.89C562.82 453.1 572.9 479.38 581.71 505.63C588.83 527.35 595.56 549.8 601.25 571.95C607.05 594.11 612.21 616.61 616.95 638.96C624.52 674.82 630.81 710.85 637 746.87L636.02 747.07L636 747.06Z" fill="#25114C"/>
<path d="M616.19 754.34C615.74 698.86 625.92 643.34 619.84 587.96C605.07 433.62 538.93 291.48 512.5 138.74C497.41 52.77 497.49 -33.92 525.61 -117.87C533.86 -142.84 544.43 -167.5 556.59 -190.97L561.25 -200L755.66 -27.08C754.19 -26.59 752.74 -26.06 751.25 -25.53C749.76 -25.01 748.28 -24.45 746.89 -23.83L742.59 -21.99L741.52 -21.51L740.49 -20.99L738.42 -19.95C700.54 -1.25 675.07 34.34 658.96 73.14C610.97 193.72 631.18 346.15 635.74 474.47C637.4 512.08 637.55 549.89 635.77 587.5C635.16 606.26 633.12 625.24 630.37 643.77C627.79 661.42 624.34 681.3 621.84 698.95C619.26 717.31 617.41 735.8 617.18 754.35H616.18L616.19 754.34Z" fill="#25114C"/>
<path d="M638.66 752.98C643.12 700.36 651.19 647.61 664.74 596.53C672.22 568.36 681.65 539.98 692.64 513C694.82 507.91 699.37 497.41 701.49 492.57C703.46 488.49 709.09 476.68 711.15 472.4C713.55 467.83 719.36 456.91 721.67 452.54C724.1 448.31 730.49 437.44 733.06 433.04C750.9 403.84 772.45 376.75 792.47 349.38C802.79 335.05 812.71 320.49 820.79 305.27C837.08 274.78 847.04 240.83 856.65 207.07C881 119.77 900.85 20.84 871.24 -65.22L1017.61 -99.22C1019.44 -87.58 1020.87 -75.95 1021.71 -64.38C1023.35 -41.85 1023.15 -18.54 1021.17 3.84C1013.26 93.7 980.88 175.75 942.99 255.15C923.34 296.85 899.42 339.7 867.3 373.85C830.3 413.73 795.21 441.27 764.3 480.79C713.78 544.85 679.25 620.21 655.08 698.14C651 711.15 646.7 726.09 643.25 739.29L639.63 753.14L638.64 752.98H638.66Z" fill="#25114C"/>
<path d="M637.87 772.09C671.41 638.86 827.48 609.38 929.39 544.77C948.08 533.17 966.03 520.38 983.05 506.5C1038.87 460.66 1084.55 403.68 1122.8 342.68C1146.13 305.38 1166.93 266.59 1185.86 226.86C1204.65 186.69 1223.05 145.38 1229.75 101.48C1236.26 47.63 1239.88 -7.71999 1230.27 -61L1229.42 -65.04C1228.96 -67.36 1228.49 -69.6 1227.19 -71.54C1224.36 -76.61 1220.69 -80.4 1216.74 -84.76C1213.1 -88.62 1209.71 -92.96 1206.05 -97.74C1191.69 -116.7 1180.89 -141.77 1174.4 -165.63L1345.8 -169.36C1339.64 -164.91 1335.9 -161.26 1334.69 -152.7C1333.51 -143.84 1335.36 -130.81 1336.16 -121.4C1336.99 -112.17 1337.55 -102.31 1337.27 -92.89C1337.07 -83.85 1335.94 -74.78 1334.56 -65.91C1333.62 -58.76 1332.28 -51.38 1330.94 -44.38C1322.51 -0.999985 1309.96 41.5 1296.87 82.96C1293.93 92.4 1290.75 102.13 1287.52 111.5C1283.97 121.38 1279.86 131.21 1275.53 140.6C1253.09 188.29 1225.25 232.44 1199.15 277.44C1165.83 332.66 1128.68 385.9 1085.33 433.78C1042.09 481.62 992.11 523.93 935.57 555.18C868.75 592.76 793.87 613.24 729.45 655.01C697.67 675.54 668.88 702.39 651.95 736.67C646.28 748.02 641.92 760 638.85 772.31L637.88 772.07L637.87 772.09Z" fill="#25114C"/>
<path d="M638.14 772.16C663.54 666.52 775.33 624.72 863.95 583.46C907.33 563.8 949.12 540.54 986.49 510.94C1078.77 437.67 1144.57 337.05 1197.87 233.19C1214.99 199.58 1231.79 164.91 1242.84 129.04C1246.03 118.69 1248.62 108.22 1250.48 97.59C1259.28 46.92 1265.36 -5.04001 1262.12 -56.27C1262.01 -57.78 1261.93 -59.3 1261.8 -60.8L1261.36 -65.28C1259.68 -86.16 1248.04 -101.84 1238.48 -120.56C1231.27 -134.25 1225.67 -150.94 1222.68 -166.65L1297.51 -168.28C1294.86 -159.35 1294.11 -150.69 1295.53 -139.6C1297.85 -123.32 1303.03 -105.15 1303.4 -87.84C1303.84 -78.85 1302.89 -69.52 1302.25 -60.56C1297.1 -6.8 1284.63 45.46 1270.8 97.28C1269.17 103.5 1267.19 110.09 1265.12 116.13C1250.37 158.79 1227.95 198.44 1206.71 237.84C1201.47 247.42 1193.51 261.98 1188.16 271.34C1111.21 407.79 1012.76 524.51 865.01 585.79C781.28 624.1 678.71 660.21 644.1 754.05C641.96 760.03 640.12 766.12 638.56 772.28L638.14 772.18V772.16Z" fill="#2F1F60"/>
<path d="M664.47 752.84C691.8 646.07 840.38 594.26 936.27 568.58C981.17 556.83 1026.9 547.92 1072.92 541.71C1083.11 540.13 1093.26 537.73 1103.25 534.96C1271.47 486.51 1399.99 339.65 1449.42 174.65C1468.85 111.24 1485.01 47.47 1506.15 -16.04C1515.77 -44.17 1526.42 -72.44 1541.74 -98.36C1556.3 -123.21 1577.95 -147.38 1606.39 -160.36C1610.86 -162.44 1615.69 -164.35 1620.86 -166.03L1655.03 1.97C1656.72 1 1658.11 0.030014 1659.21 -0.929993C1660.3 -1.89999 1661.1 -2.81999 1661.65 -3.64999C1662.76 -5.34999 1662.79 -6.69 1662.3 -7.57001C1661.22 -9.34001 1657.96 -9.34 1654.23 -8.16C1644.47 -4.84 1635.92 1.92999 1627.99 8.67C1618.47 16.93 1609.54 26.38 1601.15 36.16C1560.72 83.95 1529.36 139.88 1500.07 195.41C1463.05 266.88 1420.49 336.19 1365.44 395.21C1295.97 469.41 1206.59 526.9 1107.12 550.29C1093.13 553.61 1078.45 555.89 1064.05 557.02C950.36 569.05 793.47 600.82 708.85 681.31C688.55 700.96 672.21 725.43 665.44 753.1L664.47 752.86V752.84Z" fill="#25114C"/>
</g>
</g>
</svg>
